X:82
T: Sipan
N: C1576E
O: China,Shandong, Rizhao
S: III, 396]
R: Xiaodiao, Xiaolang diao]
M: 2/4
L: 1/16
K: E
e2e2c2B2 | e2e2c2B2 | e2e4cB | G8 |
e2f2e2c2 | B6c2 | B8 |
G2B4c2 | e2f2efcB | G8 | B2c2B2G2 | F3EF4 |
F2FGB2B2 | G4G2F2 | E6F2 | E8

@@@ Tune index: 6637
